X: 05067
T: NATHANIEL'S MARCH
C: Bob McQuillen 10 Oct'80
B: Bob's Note Book 5 #67
%R: march
Z: 2021 John Chambers <jc:trillian.mit.edu>
M: C
L: 1/4
K: D
FG \
| A>B AF | GF ED | FA d>e | fd ef | g>a gf | ef ga | ba a>b | a2 FG |
| A>B AF | GF ED | A,D D>E | FD EF | G>A Bd | AF EG | FD D>E | D2 |]
[| FG \
| Ad d>e | dA FG | A>B AF | A2 FG | Ad d>e | fd cd | e>d ef | e2 FG |
| Ad d>e | fd FG | A>B AF | Ad de | f>g af | ge dc | d2 d>c | d2 |]
%%begintext align
%% For my friend
%% Nathaniel Ward, from over near
%% Niskayuna, New York. Maybe
%% someday you'll play this on your fiddle, Nathaniel!
%%endtext

%%sep 1 1 500

%%sep 1 1 500

